X:568
T: Dem Bauer seng Heilegsgof (266), S. 566
N: T0456
O: Luxemburg
S: Singendes Volk, Esch-Alzette, 1937 posth.]
N: Junglinster, hhh Vater des Verfassers, um 1890;
N: Straen, hhh Nikolaus Lersch, Liederheft, um 1850
R: Scherz-, Spiel-, Spottlied; Hochzeits-, Brautlied]
M: 2/4
L: 1/16
K: G
D2 | G3GGGG2 | G2DDDD
D2 | A2A2A2G2 | F2E2D2
G2 | A2DDDDD2 | G4z2
D2 | G2G2G2A2 | B4z2
G2 | A2DDDDD2 | G4z4 |
G4F2E2 | E2D2D2
D2 | G2G2G2A2 | B4z2
G2 | A2DDDDD2 | G2z4

@@@ Tune index: 8622
